!!!OTL: Die versoffenen Kleider (26a), S. 104
!!!id: T0148
**kern
*clefG2
*k[b-]
*F:
{4f
=1
4f
4c
8a
8a
=2
4a
4f}
=3
{8cc
8cc
=4
4dd
4cc
8b-
8f
=5
4f}
4r
=6
{8f
8dd
=7
8dd
8dd
8dd
8dd
8ff
8dd
=8
8dd
8cc
4cc}
=9
{8dd
8cc
=10
8cc
8b-
8b-
8b-
8dd
8b-
=11
8b-
8a
4a}
=12
{4cc
=13
4dd
4cc
8b-
8f
=14
4f}
4r
==
*-
!!!minrhy: 8
!!!meters: 3/4 ]  ZZ[5
!!!cut: Die versoffenen Kleider (26a), S. 104
!!!reg: Luxemburg
!!!trd: Singendes Volk, Esch-Alzette 1937 posth.
!!!rhy1: X_  X_X_XX  X_X_
!!!rhy2: XX  X_X_XX  X_0_
!!!key: T0148  08  F 3/4 ]  ZZ[5
!!!mod: PENTATONIK ]  AMBITUS[11
!!!kad: 11531
!!!akz: 13_61_66_54_61_
!!!fot: 'a__b__c__d__bv_
!!!for: 'a__aw_b__b__a__
!!!fok: '^__\__^a_\__\__
!! PHRAS[AUFTAKTIG]
!!!fkt: Liebeslieder
!!!bem1: StraPen, fff Witry, 24.1.1933;
!!!bem2: (26b)- Consdorf, geschriebenes Liederbuch (1848-1915)
!! THILL, Mathias:
!! PR[28] 2K[0] 2G[8] 3K[4] 3G[2] 4A[4] 4Ü[2] 5A[2] 6K[0] 6G[0]
!! 7K[0] 7G[0] 8A[0] MEHR[0] SI[22] ABS[50] SR[8] SP[14]
!! ST[12] 2k[12] 2g[36] 3k[2] 3g[0] 4d[0] 4ü[0] 5d[0] 6k[0] 6g[0]
!! 7k[0] 7g[0] 8d[0] mehr[0] si[50] dm[-28] sr[48] sp[2]
!! 1F[67] 2F[33] 3F[0] 4F[0] LF[0] 2P[0] 3P[0] 4P[0] TRI[0] DF[2] AB[54]
!! TF[0] U3K[0] U3[0] U4[0] U4Ü[0] U5[0] U6K[0] U6[0] U7K[0] U7[2]
!! N1[8] N2K[0] N2[12] N3K[0] N3[16] N4[10] N4Ü[0] N5[33] N6K[0] N6[20]
!!!n7k: 0] N7[0] O1[0] O2K[0] O2[0] O3K[0] O3[0] HÖ[0
